raw/symbols/xtz.svg

<svg width="42" height="42" viewBox="0 0 42 42" fill="none" xmlns="http://www.w3.org/2000/svg">
<circle cx="21" cy="21" r="20" fill="#2C7DF7"/>
<path d="M23.2825 35C21.2845 35 19.8261 34.5187 18.9074 33.5562C18.0564 32.7414 17.5625 31.6229 17.5338 30.4451C17.5235 30.0873 17.6064 29.7329 17.7744 29.4168C17.9312 29.1437 18.1576 28.9171 18.4306 28.7602C18.7479 28.6019 19.0976 28.5195 19.4521 28.5195C19.8067 28.5195 20.1564 28.6019 20.4737 28.7602C20.7462 28.9165 20.9716 29.1434 21.1262 29.4168C21.2991 29.7314 21.3851 30.0863 21.3754 30.4451C21.3933 30.8736 21.2703 31.2962 21.0254 31.6482C20.8213 31.9356 20.5296 32.1491 20.1939 32.2567C20.5221 32.6747 20.9866 32.9642 21.5063 33.0749C22.0879 33.2438 22.6901 33.3307 23.2957 33.333C24.0974 33.34 24.8826 33.1052 25.5489 32.6592C26.24 32.1709 26.7555 31.4729 27.0188 30.6687C27.3526 29.7115 27.5155 28.703 27.5001 27.6894C27.527 26.6326 27.3487 25.5807 26.975 24.5918C26.694 23.8009 26.1605 23.1245 25.4569 22.6668C24.8029 22.2529 24.0438 22.0358 23.2698 22.0412C22.5955 22.0984 21.9452 22.3191 21.3754 22.6844L19.9707 23.3887V22.6844L26.2837 14.2153H17.5338V23.0037C17.5091 23.6379 17.6768 24.2648 18.0151 24.8019C18.1787 25.0359 18.4 25.2237 18.6575 25.3471C18.9151 25.4705 19.2001 25.5253 19.485 25.5062C20.0115 25.4955 20.5206 25.3161 20.9374 24.9943C21.4099 24.6481 21.821 24.2251 22.1537 23.743C22.1837 23.6585 22.2389 23.5852 22.3119 23.5332C22.3705 23.4825 22.4454 23.4546 22.5228 23.4544C22.6748 23.4683 22.8187 23.5295 22.9341 23.6293C23.0803 23.7927 23.1599 24.005 23.1572 24.2243C23.1403 24.3716 23.114 24.5178 23.0784 24.6618C22.7676 25.4141 22.2466 26.061 21.5777 26.5249C20.9565 26.9453 20.2228 27.1682 19.4727 27.1644C17.5783 27.1644 16.2659 26.791 15.5355 26.0444C15.1601 25.6317 14.8707 25.1483 14.6844 24.6224C14.4981 24.0965 14.4186 23.5388 14.4505 22.9818V14.2153H10V12.5824H14.4712V8.85928L13.4475 7.8349V7H16.418L17.5338 7.57758V12.5824L29.0924 12.5473L30.2431 13.7022L23.1556 20.8242C23.5838 20.652 24.0347 20.5429 24.4942 20.5004C25.4038 20.5403 26.2912 20.7936 27.0847 21.2399C28.0036 21.6767 28.778 22.3677 29.3161 23.2312C29.7983 23.9621 30.1395 24.7767 30.3224 25.6331C30.4727 26.3085 30.5533 26.9976 30.563 27.6896C30.5677 29.01 30.2683 30.3139 29.688 31.5001C29.1377 32.6487 28.2116 33.5749 27.0629 34.1252C25.8872 34.7045 24.5933 35.0039 23.2825 35Z" fill="#F3F3F3"/>
</svg>

<svg xmlns="http://www.w3.org/2000/svg" width="42" height="42" fill="none"><circle cx="21" cy="21" r="20" fill="#2C7DF7"/><path fill="#F3F3F3" d="M23.282 35c-1.997 0-3.456-.481-4.375-1.444a4.458 4.458 0 0 1-1.373-3.11c-.01-.359.072-.713.24-1.03.157-.272.384-.499.657-.656a2.288 2.288 0 0 1 2.043 0c.272.156.498.383.652.657.173.314.26.67.25 1.028.017.429-.106.851-.35 1.203a1.63 1.63 0 0 1-.832.609 2.27 2.27 0 0 0 1.312.818 6.504 6.504 0 0 0 1.79.258 3.988 3.988 0 0 0 2.253-.674 3.937 3.937 0 0 0 1.47-1.99 8.65 8.65 0 0 0 .481-2.98 8.174 8.174 0 0 0-.525-3.097 3.824 3.824 0 0 0-1.518-1.925 4.037 4.037 0 0 0-2.187-.626 4.162 4.162 0 0 0-1.895.643l-1.404.705v-.705l6.313-8.469h-8.75v8.789a3.144 3.144 0 0 0 .481 1.798 1.658 1.658 0 0 0 1.47.704 2.458 2.458 0 0 0 1.452-.512c.473-.346.884-.769 1.217-1.251a.437.437 0 0 1 .158-.21.324.324 0 0 1 .21-.079.73.73 0 0 1 .412.175.876.876 0 0 1 .223.595 3.473 3.473 0 0 1-.079.438c-.31.752-.831 1.399-1.5 1.863a3.722 3.722 0 0 1-2.105.64c-1.895 0-3.207-.374-3.937-1.12a4.195 4.195 0 0 1-1.085-3.063v-8.767H10v-1.633h4.471V8.86l-1.024-1.024V7h2.971l1.116.578v5.004l11.558-.035 1.151 1.155-7.087 7.122c.428-.172.879-.281 1.338-.324.91.04 1.797.294 2.59.74a5.32 5.32 0 0 1 2.232 1.991c.482.731.824 1.546 1.006 2.402.15.675.231 1.365.241 2.057a8.602 8.602 0 0 1-.875 3.81 5.588 5.588 0 0 1-2.625 2.625 8.496 8.496 0 0 1-3.78.875Z"/></svg>
